X: 7801
T:Sextur 1
R:Sextur
O:Denmark
M:6/8
K:A
E | A2A AcA | e2c ABc | d2BG2B \
|1 A2c edB :|2 A3A3 :|
|: \
B2B Bcd | e2ee3 | efe dcB |1 c2cc3 :|2 c3c3 :|
|:\
f2f fga | e2c cBA |1 B2B BAG | A2c edB :|2\
B2B BcB | A3 A3 :|
